<?xml version="1.0" encoding="UTF-8"?>
<map version="1.10" tiledversion="1.12.1" orientation="orthogonal" renderorder="right-down" width="180" height="38" tilewidth="16" tileheight="16" infinite="0" nextlayerid="3" nextobjectid="62">
 <tileset firstgid="1" source="../../moonlight_factory_tiled/map_tiles.tsx"/>
 <layer id="1" name="Platforms" width="180" height="38">
  <data encoding="csv">
352,353,354,352,353,354,352,353,354,352,353,354,352,353,354,352,353,354,352,353,354,352,353,354,352,353,354,352,353,354,352,353,354,352,353,354,352,353,354,352,353,354,352,353,354,378,379,380,358,359,360,358,359,360,378,379,380,132,20,20,398,399,400,132,24,378,379,380,358,359,360,328,329,29,132,29,328,329,398,399,400,378,379,380,378,379,380,398,399,400,352,353,354,352,353,354,352,353,354,352,353,354,352,353,354,352,353,354,352,353,354,378,379,380,358,359,360,352,353,354,352,353,354,352,353,354,352,353,354,352,353,354,352,353,354,352,353,354,352,353,354,132,132,132,132,132,132,132,132,132,132,132,132,132,132,132,132,132,132,132,352,353,354,352,353,354,378,379,380,358,359,360,378,379,380,132,20,352,353,354,
372,373,374,372,373,374,372,373,374,372,373,374,372,373,374,372,373,374,372,373,374,372,373,374,372,373,374,372,373,374,372,373,374,372,373,374,372,373,374,372,373,374,372,373,374,398,399,400,378,379,380,378,379,380,398,399,400,132,40,20,132,132,132,132,24,398,399,400,378,379,380,348,349,29,132,29,348,349,352,353,354,378,379,380,378,379,380,132,4,132,372,373,374,372,373,374,372,373,374,372,373,374,372,373,374,372,373,374,372,373,374,398,399,400,378,379,380,372,373,374,372,373,374,372,373,374,372,373,374,372,373,374,372,373,374,372,373,374,372,373,374,132,132,132,132,132,132,132,132,132,132,132,132,132,132,132,132,132,132,132,372,373,374,372,373,374,398,399,400,378,379,380,398,399,400,132,20,372,373,374,
392,393,394,392,393,394,392,393,394,392,393,394,392,393,394,392,393,394,392,393,394,392,393,394,392,393,394,392,393,394,392,393,394,392,393,394,392,393,394,392,393,394,392,393,394,352,353,354,378,379,380,378,379,380,132,4,132,132,20,40,132,132,132,132,24,132,132,132,378,379,380,29,29,352,353,354,29,29,372,373,374,378,379,380,398,399,400,132,24,132,392,393,394,392,393,394,392,393,394,392,393,394,392,393,394,392,393,394,392,393,394,352,353,354,378,379,380,392,393,394,392,393,394,392,393,394,392,393,394,392,393,394,392,393,394,392,393,394,392,393,394,132,132,132,132,132,132,132,132,132,132,132,132,132,132,132,132,132,132,132,392,393,394,392,393,394,352,353,354,378,379,380,132,4,132,132,20,392,393,394,
328,329,29,132,29,328,329,132,132,132,132,132,132,132,132,250,132,132,132,132,132,248,1,1,132,132,132,132,132,132,132,20,20,20,132,132,132,132,132,132,132,132,132,132,20,372,373,374,378,379,380,398,399,400,132,24,132,132,40,20,132,132,132,132,6,132,132,132,378,379,380,132,132,372,373,374,132,132,392,393,394,398,399,400,132,132,132,132,24,132,132,132,132,132,132,132,20,20,132,132,132,132,132,132,132,132,132,132,352,353,354,372,373,374,378,379,380,20,132,132,132,132,132,132,132,132,132,132,132,132,132,132,132,132,132,132,352,353,354,352,353,354,352,353,354,352,353,354,352,353,354,352,353,354,352,353,354,352,353,354,20,132,132,352,353,354,372,373,374,378,379,380,132,24,132,132,20,20,132,20,
348,349,29,132,29,348,349,132,132,132,132,132,228,269,269,270,132,1,132,132,132,268,269,230,132,132,132,132,132,132,132,20,20,20,132,132,132,132,132,132,132,132,132,132,40,392,393,394,398,399,400,132,132,132,132,24,132,132,132,20,132,132,132,25,1,27,132,132,398,399,400,132,132,392,393,394,132,132,132,132,132,132,132,132,132,132,132,132,24,132,132,132,132,132,132,132,20,40,132,132,132,132,132,132,132,132,132,132,372,373,374,392,393,394,398,399,400,20,132,132,132,132,132,132,132,132,132,132,132,132,132,132,132,132,132,132,372,373,374,372,373,374,372,373,374,372,373,374,372,373,374,372,373,374,372,373,374,372,373,374,20,132,132,372,373,374,392,393,394,398,399,400,132,24,132,132,20,20,132,20,
29,29,352,353,354,29,29,132,132,132,132,132,248,132,132,14,14,132,132,132,132,132,132,250,132,132,132,132,132,132,132,20,20,40,132,132,132,132,132,132,132,132,132,132,20,132,132,132,132,132,132,132,132,132,132,24,132,132,132,20,132,132,132,45,46,47,132,132,132,132,132,132,132,132,4,132,132,132,132,132,132,132,132,132,132,132,132,132,6,132,132,132,132,132,132,132,20,132,132,132,132,132,132,132,132,132,132,132,392,393,394,132,132,132,132,132,20,20,132,132,132,132,132,132,132,132,132,132,132,132,132,132,132,132,132,132,392,393,394,392,393,394,392,393,394,392,393,394,392,393,394,392,393,394,392,393,394,392,393,394,20,132,132,392,393,394,132,132,132,132,132,132,132,24,132,132,20,20,132,20,
132,132,372,373,374,132,132,132,132,132,132,132,268,269,269,269,269,269,269,379,379,269,269,270,132,132,132,132,132,132,132,20,20,40,132,132,132,132,132,132,132,132,132,132,40,132,132,132,132,132,132,132,132,132,132,6,132,132,132,40,132,132,132,132,132,132,132,132,132,132,132,132,132,132,24,132,132,132,132,132,132,132,132,132,132,132,132,25,1,27,132,132,132,132,132,132,20,132,132,132,132,132,132,132,132,132,132,132,132,4,132,132,132,132,132,132,20,20,132,132,132,132,132,132,132,132,132,132,132,132,132,132,132,132,132,132,132,352,353,354,352,353,354,358,359,360,358,359,360,132,132,132,132,132,132,132,20,132,132,20,20,132,132,132,4,132,132,132,132,132,132,132,132,6,132,132,20,20,132,20,
132,132,392,393,394,132,132,132,132,132,132,132,132,132,132,132,132,132,132,132,132,132,132,132,132,132,132,132,132,132,132,20,20,132,132,132,132,132,132,132,132,132,132,132,20,132,132,132,132,132,132,132,132,132,25,1,27,132,132,132,132,132,132,132,132,132,132,132,132,132,132,132,132,132,24,132,132,132,132,132,132,132,132,132,132,132,132,45,46,47,132,132,132,132,132,132,40,132,132,132,132,132,132,132,132,132,132,132,132,24,132,132,132,132,132,132,40,20,132,132,132,132,132,132,132,132,132,132,132,132,132,132,132,132,132,132,132,372,373,374,372,373,374,378,379,380,378,379,380,132,132,132,132,132,132,132,20,132,132,40,20,132,132,132,24,132,132,132,132,132,132,132,25,1,27,132,20,20,132,20,
132,132,132,4,132,132,132,132,132,132,132,132,132,132,132,132,132,132,132,132,132,132,132,132,132,132,132,132,132,132,132,20,20,132,132,132,132,132,132,132,132,132,132,132,40,132,132,132,132,132,132,132,132,132,45,46,47,132,132,132,132,132,132,132,132,132,132,132,132,132,132,132,132,132,24,132,132,132,132,132,132,132,132,132,132,132,132,132,132,132,132,132,132,132,132,132,132,132,132,132,132,132,132,132,132,132,132,132,132,24,132,132,132,132,132,132,132,20,132,132,132,132,132,132,132,132,132,132,132,132,132,132,132,132,132,132,132,392,393,394,392,393,394,378,379,380,378,379,380,132,132,132,132,132,132,132,20,132,132,132,20,132,132,132,24,132,132,132,132,132,132,132,45,46,47,132,20,40,132,20,
132,132,132,24,132,132,132,132,132,132,132,132,132,132,132,132,132,92,132,132,132,132,132,132,132,132,14,132,132,132,132,20,20,132,132,132,132,132,132,132,132,132,132,132,20,132,132,132,132,132,132,132,132,132,132,132,132,132,132,132,132,132,132,132,132,132,132,132,132,132,132,132,132,132,24,132,132,132,132,132,132,132,132,132,132,132,132,132,132,132,132,132,132,132,132,132,132,132,132,132,132,132,132,132,132,132,132,132,132,24,132,132,132,132,132,132,132,20,132,132,132,132,132,132,132,132,132,132,132,132,132,132,132,132,132,132,132,378,379,380,352,353,354,378,379,380,398,399,400,132,132,132,132,132,132,132,40,132,132,132,20,132,132,132,24,132,132,132,132,132,132,132,132,132,132,132,20,132,132,20,
132,132,132,24,132,132,132,92,92,92,92,92,92,92,92,92,92,92,132,132,132,132,132,132,132,65,66,67,132,132,132,40,20,132,132,132,132,132,132,132,132,132,132,132,40,132,132,132,132,132,132,132,132,132,132,132,132,132,132,132,132,132,132,132,132,132,132,132,132,132,132,132,132,132,24,132,132,132,132,132,132,132,132,132,132,132,132,132,132,132,132,132,132,132,132,132,132,132,132,132,132,132,132,132,132,132,132,132,132,24,132,132,132,132,132,132,132,20,132,132,132,132,132,132,132,132,132,132,132,186,132,132,132,132,132,132,132,398,399,400,372,373,374,378,379,380,132,132,132,132,132,132,132,132,132,132,132,132,132,132,20,132,132,132,24,132,132,132,132,132,132,132,132,132,132,132,20,132,132,20,
132,132,132,24,132,132,132,92,132,132,132,132,132,132,132,132,132,132,132,132,132,1,132,132,132,132,132,132,132,132,132,132,20,132,132,132,132,132,132,132,132,132,132,132,132,132,132,132,132,132,132,132,132,132,132,132,132,132,132,132,132,132,132,132,132,132,132,132,132,132,132,132,132,132,24,132,132,132,132,132,132,132,132,132,132,132,132,132,132,132,132,132,132,132,132,132,132,132,132,132,132,132,132,132,132,132,132,132,132,24,132,132,132,132,132,132,132,40,132,132,132,132,132,132,132,132,132,132,132,206,132,132,132,132,132,132,132,132,132,132,392,393,394,398,399,400,132,132,132,132,132,132,132,132,132,132,132,132,132,132,40,132,132,132,24,132,132,132,132,132,132,132,132,132,132,132,40,132,132,20,
132,1,132,24,132,132,132,92,132,132,132,132,132,132,132,132,132,132,132,132,132,132,132,132,132,132,132,132,132,132,132,132,40,132,132,132,132,132,132,132,132,132,132,132,132,132,132,132,132,132,132,132,132,132,132,132,132,132,132,132,132,132,132,132,187,132,132,132,132,132,132,132,132,132,6,132,132,132,132,132,132,132,132,132,132,132,132,132,132,132,132,132,132,132,132,132,132,132,132,132,132,132,132,132,132,132,132,132,132,24,132,132,132,132,132,132,132,132,132,132,132,132,132,132,132,88,89,89,89,89,90,132,132,132,132,132,132,132,132,132,132,4,132,132,132,132,132,132,132,1,132,132,132,132,132,132,132,132,132,132,132,132,132,132,24,132,132,132,132,132,132,132,132,132,132,132,132,132,132,20,
92,92,92,24,92,92,92,92,132,132,132,1,132,132,132,132,132,132,132,132,132,132,132,132,132,132,132,132,132,132,132,132,132,132,132,132,132,132,132,132,132,132,132,132,132,132,132,132,132,132,132,132,132,132,132,132,132,132,132,132,132,132,132,132,207,132,132,132,132,132,132,132,132,25,1,27,132,132,132,132,132,132,132,132,132,132,132,132,132,132,132,132,132,132,132,132,132,132,132,132,132,132,132,132,132,132,132,132,132,6,132,132,132,132,132,132,132,132,132,132,132,132,132,132,132,108,109,109,109,109,110,132,132,132,132,132,132,132,132,132,132,24,132,132,132,132,132,132,132,132,132,132,132,132,132,132,132,132,132,132,335,132,132,132,6,132,132,132,137,132,132,132,132,132,132,132,132,132,132,20,
132,132,132,24,132,132,132,132,132,132,132,64,132,132,132,132,132,132,132,132,132,279,132,132,132,132,132,132,132,132,132,132,132,132,132,132,132,132,132,279,132,132,132,132,132,132,132,132,132,132,132,132,132,132,132,132,132,132,132,132,88,89,89,89,89,90,132,132,132,132,132,132,132,45,46,47,132,132,132,132,132,132,132,132,132,132,132,132,132,132,132,132,132,132,132,132,132,132,132,132,132,132,132,132,132,132,132,132,25,1,27,132,132,132,132,132,132,132,132,132,132,132,132,132,132,128,129,129,129,129,130,132,132,132,132,132,132,132,132,132,132,24,132,132,132,132,132,132,88,89,90,132,132,132,132,132,132,132,132,132,132,132,132,25,1,27,132,132,137,132,132,132,132,132,132,132,132,132,132,20,
132,132,132,6,132,132,132,132,132,132,132,132,132,132,132,132,132,132,132,132,132,299,132,132,132,132,132,132,132,132,132,132,15,132,132,132,132,132,132,299,132,132,132,132,132,132,132,132,132,132,132,132,132,132,132,132,132,132,132,132,108,109,109,109,109,110,132,132,132,132,132,132,132,132,132,132,132,132,132,132,132,132,132,132,132,132,132,132,132,132,132,132,132,132,132,132,132,132,132,132,132,132,132,132,132,132,132,132,45,46,47,132,132,132,132,132,132,132,132,132,132,132,132,132,132,132,132,132,132,132,132,132,132,132,132,132,132,132,132,132,132,24,132,132,132,132,132,132,108,109,110,132,132,132,132,132,132,132,132,132,132,132,132,45,46,47,132,137,1,1,132,132,132,132,132,132,132,132,132,20,
132,132,25,26,27,132,132,132,132,132,132,132,132,132,132,132,132,132,132,132,132,299,132,132,132,132,132,132,132,132,132,132,35,132,132,132,14,132,132,299,132,132,132,132,132,132,132,132,132,132,132,132,132,132,132,132,132,132,132,132,128,129,129,129,129,130,132,132,132,132,132,132,132,132,132,132,132,132,132,132,132,132,132,132,132,132,186,132,132,132,132,132,88,89,89,89,89,90,132,132,132,132,132,132,132,132,132,132,132,132,132,132,132,132,132,132,132,132,132,132,132,132,132,132,132,132,132,132,132,132,132,132,132,132,132,132,132,132,132,132,132,24,132,132,132,132,132,132,128,129,130,132,132,132,132,132,132,132,132,132,132,132,132,132,132,132,1,1,1,1,132,132,132,132,132,132,132,132,132,40,
132,132,45,46,47,132,132,132,132,132,132,132,132,132,132,132,132,132,132,132,132,299,132,132,132,132,132,132,65,66,67,65,66,67,65,66,67,132,132,299,132,132,132,132,132,132,132,132,132,132,132,132,132,132,132,132,132,132,132,132,132,132,132,132,132,132,132,132,132,132,132,132,132,132,132,132,132,132,132,132,132,132,132,132,132,132,206,132,132,132,132,132,108,109,109,109,109,110,132,132,132,132,132,132,132,132,132,132,132,132,132,132,132,132,132,132,132,132,132,132,132,132,132,132,132,132,132,132,132,132,132,132,132,132,132,132,132,132,132,132,132,24,132,132,132,132,132,132,132,132,132,132,132,132,132,132,132,132,132,132,132,132,132,132,132,132,379,1,1,1,132,132,132,132,132,132,132,132,132,132,
132,132,132,132,132,132,132,132,132,132,132,132,132,132,132,132,132,132,132,132,132,299,132,132,132,132,132,132,132,132,132,132,132,132,132,132,132,132,132,299,132,132,132,132,132,132,132,132,132,132,132,132,132,132,132,132,132,132,132,132,132,132,132,132,132,132,132,132,132,132,132,132,132,339,339,339,339,339,132,132,132,132,132,339,339,339,339,132,132,132,132,132,128,129,129,129,129,130,132,132,132,132,132,132,132,132,132,132,132,132,132,132,132,132,132,132,132,132,132,132,132,132,132,132,132,132,132,132,132,132,132,132,132,132,132,132,132,132,132,132,132,24,132,132,132,132,132,132,132,132,132,132,132,132,132,132,132,132,132,132,132,132,132,132,132,132,379,1,1,1,132,132,132,132,132,132,132,132,132,132,
132,132,132,132,132,132,132,132,132,132,132,132,132,132,132,132,132,132,132,132,132,299,132,132,132,132,132,132,132,132,132,132,132,132,132,132,132,132,132,299,132,132,132,132,187,132,132,132,132,132,132,132,132,132,132,132,132,132,132,132,132,132,132,132,132,132,132,132,132,132,132,132,132,339,132,132,132,132,132,132,132,132,132,132,132,132,339,132,132,132,132,132,132,132,132,132,132,132,132,132,132,132,132,132,132,132,132,132,132,132,132,132,132,132,132,132,132,132,132,132,132,132,132,132,132,132,132,132,279,132,132,132,132,132,132,132,132,132,132,132,132,6,132,132,132,132,132,132,132,132,132,132,132,132,132,132,132,132,132,132,132,132,132,132,132,132,132,96,1,96,132,132,132,132,132,132,132,132,132,132,
132,132,132,132,132,132,132,132,132,132,132,132,132,132,132,132,132,132,132,132,132,299,132,187,132,132,132,132,132,132,132,132,132,132,132,132,132,132,132,299,132,132,132,132,207,132,14,132,132,132,132,132,132,132,132,132,132,132,132,132,132,132,132,132,132,132,132,132,132,132,132,132,132,339,132,132,132,132,132,132,132,132,132,132,132,132,339,37,132,132,1,132,132,132,132,132,132,132,132,132,132,132,132,132,132,37,76,132,132,132,132,132,132,132,132,132,132,132,132,132,132,132,132,132,132,132,132,132,299,132,132,132,132,132,132,132,132,132,132,132,25,1,27,132,132,132,132,132,132,132,132,132,132,132,132,132,132,132,74,132,132,132,132,132,132,358,359,360,1,358,359,360,132,132,132,132,132,132,132,132,
132,132,132,132,132,132,132,132,132,132,132,132,132,132,132,132,14,132,132,132,132,319,132,207,132,132,132,132,132,132,132,132,132,132,132,132,132,132,132,299,132,132,88,89,89,89,89,89,90,336,337,337,337,337,337,337,92,92,92,132,132,132,132,132,92,92,92,337,337,337,337,337,338,339,132,132,132,132,132,132,132,132,132,132,132,132,339,337,258,132,132,132,132,256,337,337,337,258,132,132,132,132,132,256,337,337,279,132,132,132,132,132,132,132,132,132,132,132,132,132,132,132,132,132,132,132,132,132,319,132,132,132,132,132,132,132,132,132,132,132,45,46,47,132,132,132,132,132,132,132,132,132,132,88,89,89,89,89,90,132,132,132,132,132,132,378,379,380,1,378,379,380,132,132,132,132,132,132,132,132,
132,132,132,132,132,132,132,132,132,132,132,132,132,132,132,88,89,10,10,10,10,10,10,89,90,132,132,132,132,132,132,132,132,132,132,132,132,132,132,299,132,132,108,109,109,109,109,109,110,132,132,132,132,132,132,132,132,132,132,132,132,132,132,132,132,132,132,132,132,132,132,132,132,132,132,132,132,132,132,132,132,132,132,132,132,132,132,132,132,132,132,132,132,132,132,132,132,132,132,132,132,132,132,132,132,132,299,132,132,132,132,132,132,132,132,132,132,132,132,132,132,132,132,132,132,132,132,132,279,132,132,132,132,132,132,132,132,132,132,132,132,132,132,132,132,132,132,132,132,132,132,132,132,108,109,109,109,109,110,132,132,132,132,132,132,398,399,400,1,398,399,400,132,132,132,132,132,132,132,132,
132,132,132,132,132,132,132,132,132,132,132,132,1,132,132,108,109,110,132,132,132,132,108,109,110,132,132,132,132,132,132,132,132,132,132,132,132,132,132,299,132,132,128,129,129,129,129,129,130,132,132,132,132,132,132,132,132,132,132,132,132,132,132,132,132,132,132,132,132,132,132,132,132,132,132,132,132,132,132,132,132,132,132,132,132,132,132,132,132,132,132,132,132,132,132,132,132,132,132,132,132,132,132,132,132,132,299,132,132,132,132,132,132,132,132,132,132,132,132,132,132,132,132,132,132,132,132,132,299,132,132,132,132,132,132,132,132,132,132,132,132,132,132,132,132,132,132,132,132,132,132,132,132,128,129,129,129,129,130,132,132,132,132,358,359,360,328,329,1,328,329,358,359,360,132,132,132,132,132,132,
132,132,132,132,132,132,132,132,132,132,132,132,132,132,132,128,129,130,132,132,132,132,128,129,130,132,132,132,132,132,132,132,132,132,132,132,132,132,132,299,132,132,132,132,132,132,132,132,132,132,132,132,132,132,132,132,132,132,132,132,132,132,132,132,132,132,132,132,132,132,132,132,132,132,132,132,132,132,132,132,132,132,132,132,132,132,132,132,132,132,132,132,132,132,132,132,132,132,132,132,132,132,132,132,132,132,299,132,132,132,132,132,132,132,132,132,132,132,132,132,132,132,132,132,132,132,132,132,319,132,132,132,132,132,132,132,132,132,132,132,132,132,132,132,132,132,132,132,132,132,132,132,132,132,132,132,132,132,132,132,132,132,132,378,379,380,348,349,1,348,349,378,379,380,132,132,132,132,132,132,
132,132,132,132,132,132,132,132,132,132,132,132,279,132,132,132,132,132,132,132,132,132,132,4,132,132,132,132,132,132,132,132,132,132,132,132,132,132,132,299,132,1,132,132,132,132,132,132,132,132,132,132,132,132,132,132,132,132,132,132,132,132,132,132,132,132,132,132,132,132,132,132,132,132,132,132,132,132,132,132,279,132,132,132,132,132,132,132,132,132,132,132,132,132,132,132,132,132,132,132,132,132,132,132,132,132,299,132,132,132,132,132,132,186,132,132,132,132,132,132,132,132,132,132,132,132,132,132,279,132,132,132,132,132,132,132,279,132,132,132,132,132,132,132,132,132,132,132,132,132,132,132,132,132,132,132,132,132,132,132,132,132,132,398,399,400,1,1,132,1,1,398,399,400,132,132,132,132,132,132,
132,132,132,132,132,132,132,132,132,132,132,132,299,132,132,132,132,132,132,132,132,132,132,24,132,132,132,132,132,132,132,132,132,132,1,132,132,132,132,299,132,132,132,132,132,132,132,132,132,132,132,132,132,132,132,132,132,132,132,132,132,186,132,132,132,132,132,132,132,132,132,132,132,132,132,132,132,132,132,132,299,132,132,132,132,132,132,132,132,132,132,132,132,132,132,132,132,132,132,132,132,132,132,132,132,132,299,132,132,132,132,132,132,206,132,132,132,132,132,132,132,132,132,132,132,132,132,202,299,132,132,132,132,132,132,132,299,132,132,132,132,132,132,132,132,132,132,132,132,132,132,132,132,132,132,132,132,132,132,132,132,358,359,360,328,329,1,1,132,1,1,328,329,358,359,360,132,132,132,132,
132,132,132,132,132,132,132,132,132,132,132,132,299,132,132,132,132,132,132,132,132,132,132,4,132,132,132,132,132,132,132,132,132,132,132,132,132,132,132,299,132,132,132,132,132,132,132,132,132,132,132,132,132,132,132,132,132,132,132,132,132,206,132,132,132,132,132,132,132,132,132,132,132,132,132,132,132,132,132,132,299,132,132,132,132,132,132,132,132,132,132,132,132,132,132,132,132,132,132,132,132,132,132,132,132,132,299,132,132,132,88,89,89,89,89,90,132,132,132,132,132,132,132,132,132,132,132,222,319,132,132,132,132,132,132,132,299,132,132,132,132,132,132,132,132,132,132,132,132,132,132,132,132,132,132,132,132,132,132,132,132,378,379,380,348,349,1,1,132,1,1,348,349,378,379,380,132,132,132,132,
132,132,132,132,132,132,132,132,132,132,132,132,299,132,132,132,132,132,132,132,132,132,132,24,132,132,132,132,132,132,132,132,132,331,332,333,132,132,132,299,132,132,132,132,132,132,132,132,132,132,132,132,132,132,132,132,132,132,181,182,182,182,182,182,183,132,132,132,132,132,132,132,132,132,132,132,132,132,132,132,299,132,132,132,132,132,132,132,132,132,132,132,132,181,182,182,182,182,182,182,182,182,183,132,132,132,319,132,132,132,108,109,109,109,109,110,132,132,132,132,132,132,181,182,182,182,182,182,183,132,132,132,132,132,132,132,299,132,132,132,132,132,132,132,132,132,1,132,132,132,132,132,132,132,132,132,132,132,132,132,132,398,399,400,132,132,1,1,1,1,1,1,1,398,399,400,132,132,132,132,
132,132,132,132,132,132,132,132,132,14,132,132,299,132,132,132,132,132,132,132,132,132,132,6,132,132,132,132,132,132,132,132,132,132,132,132,132,132,132,299,132,132,132,132,132,132,132,132,132,132,132,132,132,132,132,132,132,132,201,132,132,132,132,132,203,132,132,132,132,132,132,132,132,132,132,132,132,132,132,132,299,132,132,132,132,132,132,132,132,132,132,132,132,201,132,132,132,132,132,132,132,132,203,132,132,132,337,132,132,132,128,129,129,129,129,130,132,132,132,132,132,132,201,132,132,132,132,132,203,132,132,132,132,132,132,132,299,132,132,132,132,132,132,132,132,132,132,132,132,132,132,132,132,132,132,132,132,132,132,358,359,360,328,329,132,132,1,1,132,1,1,1,1,328,329,358,359,360,132,132,
132,132,132,132,132,132,132,132,88,89,90,132,299,132,132,132,132,132,132,132,132,132,25,1,27,132,132,132,132,132,132,132,132,132,132,132,132,132,132,299,132,132,132,132,132,132,132,132,132,132,132,132,132,132,132,132,132,132,201,132,132,132,132,132,203,132,132,132,132,132,132,132,132,132,132,132,132,132,132,132,299,132,132,132,132,132,132,132,132,132,132,132,132,201,132,132,132,132,132,132,132,132,203,132,132,132,132,132,132,132,132,132,132,132,132,132,132,132,132,132,132,132,201,132,132,132,132,132,203,132,132,132,132,132,132,132,299,132,132,132,132,132,132,132,132,132,132,132,132,132,132,132,132,132,132,132,132,132,132,378,379,380,348,349,132,1,1,1,1,1,1,1,1,348,349,378,379,380,132,132,
132,132,132,132,132,132,132,132,108,109,110,132,299,132,132,132,132,132,132,132,132,132,45,46,47,132,132,132,132,132,132,132,132,132,132,132,132,132,132,299,132,132,132,132,132,132,132,132,132,132,132,132,132,132,132,132,132,132,201,132,132,1,1,132,203,132,132,132,132,132,132,132,132,132,132,132,132,132,132,132,299,132,132,132,132,132,132,132,132,132,132,132,132,201,132,132,132,132,132,132,132,132,203,132,132,132,132,132,132,132,132,132,132,132,132,132,132,132,132,132,132,132,201,132,132,132,132,132,203,132,132,132,132,132,132,132,299,132,132,132,132,132,132,132,132,132,132,132,1,132,132,132,132,132,132,132,132,132,132,398,399,400,132,132,132,1,1,1,1,1,1,1,1,1,1,398,399,400,132,132,
132,132,132,132,132,132,132,132,128,129,130,132,299,132,132,132,132,132,132,132,132,132,132,132,132,132,132,132,132,132,132,132,132,132,132,132,132,132,132,299,132,132,132,132,132,132,132,132,132,132,132,132,132,132,132,132,132,132,201,132,132,132,132,132,203,132,132,132,132,132,132,132,132,132,132,132,132,132,132,132,299,132,132,132,132,132,132,132,132,132,132,132,132,201,132,132,132,132,132,132,132,132,203,132,132,132,132,132,132,132,132,132,132,132,132,132,132,132,132,132,132,132,201,132,132,132,132,132,203,132,132,132,132,132,132,132,299,132,132,132,132,132,132,132,132,132,132,132,132,132,132,132,132,132,132,132,132,358,359,360,328,329,132,1,1,1,1,1,1,1,1,1,1,1,1,328,329,358,359,360,
132,132,132,132,132,132,132,132,132,132,132,132,299,132,186,132,132,132,132,132,132,132,132,132,132,132,132,132,132,132,132,132,132,132,132,132,132,132,132,299,132,132,132,132,132,132,132,132,132,132,132,132,132,132,132,132,202,132,201,132,132,132,132,132,203,132,132,132,132,132,132,132,132,132,132,132,132,15,132,132,299,132,132,132,132,132,132,132,132,132,132,132,132,201,132,132,132,132,15,132,132,132,203,132,132,132,132,132,132,132,132,132,132,132,132,132,132,132,132,132,132,132,201,132,132,132,132,132,203,16,132,132,132,132,132,132,299,132,132,132,132,132,132,132,132,132,132,132,202,132,132,132,132,132,132,132,132,378,379,380,348,349,132,1,1,1,1,1,1,1,1,1,1,1,1,348,349,378,379,380,
132,132,132,37,132,132,14,132,132,132,132,132,319,132,206,132,132,132,132,132,132,132,132,132,132,132,132,132,132,132,132,132,132,132,132,132,132,132,132,319,132,132,132,132,132,132,132,132,132,132,132,132,132,132,132,132,222,132,221,132,132,132,37,132,223,132,132,37,132,132,132,132,132,132,132,132,132,35,132,132,319,132,132,37,132,132,132,132,132,132,132,132,132,221,132,132,132,55,35,132,132,55,223,132,37,132,132,132,132,132,132,132,132,132,132,132,132,132,132,132,132,132,221,132,132,132,132,132,223,36,132,14,14,132,132,132,319,132,132,132,132,132,132,132,132,132,132,132,222,132,132,132,132,132,132,132,132,398,399,400,132,132,132,132,132,132,132,1,1,1,1,1,1,1,1,1,1,398,399,400,
272,272,272,272,272,272,272,272,272,272,272,272,272,272,272,272,272,272,272,272,272,272,272,272,272,272,272,272,272,272,272,272,272,272,272,272,272,272,272,272,272,272,272,272,272,272,272,272,272,272,272,272,272,272,272,272,272,272,272,272,272,272,272,272,272,272,272,272,272,272,272,272,272,272,272,272,272,272,272,272,272,272,272,272,272,272,272,272,272,272,272,272,272,272,272,272,272,272,272,272,272,272,272,272,272,272,272,272,272,272,272,272,272,272,272,272,272,272,272,272,272,272,272,272,272,272,272,272,272,272,272,272,272,272,272,272,272,272,272,272,272,272,272,272,272,272,272,272,272,272,272,272,272,272,272,272,272,272,272,272,272,272,272,272,272,272,272,272,272,96,96,272,272,272,272,272,272,272,272,272,
292,292,292,292,292,292,292,292,292,292,292,292,292,292,292,292,292,292,292,292,292,292,292,292,292,292,292,292,292,292,292,292,292,292,292,292,292,292,292,292,292,292,292,292,292,292,292,292,292,292,292,292,292,292,292,292,292,292,292,292,292,292,292,292,292,292,292,292,292,292,292,292,292,292,292,292,292,292,292,292,292,292,292,292,292,292,292,292,292,292,292,292,292,292,292,292,292,292,292,292,292,292,292,292,292,292,292,292,292,292,292,292,292,292,292,292,292,292,292,292,292,292,292,292,292,292,292,292,292,292,292,292,292,292,292,292,292,292,292,292,292,292,292,292,292,292,292,292,292,292,292,292,292,292,292,292,292,292,292,292,292,292,292,292,292,292,292,292,292,292,292,292,292,292,292,292,292,292,292,292,
312,312,312,312,312,312,312,312,312,312,312,312,312,312,312,312,312,312,312,312,312,312,312,312,312,312,312,312,312,312,312,312,312,312,312,312,312,312,312,312,312,312,312,312,312,312,312,312,312,312,312,312,312,312,312,312,312,312,312,312,312,312,312,312,312,312,312,312,312,312,312,312,312,312,312,312,312,312,312,312,312,312,312,312,312,312,312,312,312,312,312,312,312,312,312,312,312,312,312,312,312,312,312,312,312,312,312,312,312,312,312,312,312,312,312,312,312,312,312,312,312,312,312,312,312,312,312,312,312,312,312,312,312,312,312,312,312,312,312,312,312,312,312,312,312,312,312,312,312,312,312,312,312,312,312,312,312,312,312,312,312,312,312,312,312,312,312,312,312,312,312,312,312,312,312,312,312,312,312,312
</data>
 </layer>
 <objectgroup id="2" name="Objects">
  <object id="1" name="coin" gid="3" x="175.904" y="216.292" width="16" height="16"/>
  <object id="2" gid="3" x="47.7794" y="273.692" width="16" height="16"/>
  <object id="3" name="coin" gid="3" x="255.01" y="341.574" width="16" height="16"/>
  <object id="4" name="coin" gid="3" x="191.663" y="387.28" width="16" height="16"/>
  <object id="5" name="coin" gid="3" x="142.75" y="469.471" width="16" height="16"/>
  <object id="6" name="coin" gid="3" x="276.366" y="93.3097" width="16" height="16"/>
  <object id="7" name="coin" gid="3" x="416.273" y="154.164" width="16" height="16"/>
  <object id="8" name="coin" gid="3" x="367.603" y="498.047" width="16" height="16"/>
  <object id="9" name="coin" gid="3" x="567.311" y="263.04" width="16" height="16"/>
  <object id="10" name="coin" gid="3" x="622.578" y="210.039" width="16" height="16"/>
  <object id="11" name="coin" gid="3" x="546.698" y="432.875" width="16" height="16"/>
  <object id="12" name="coin" gid="3" x="475.886" y="540.91" width="16" height="16"/>
  <object id="13" name="coin" gid="3" x="740.071" y="321.209" width="16" height="16"/>
  <object id="14" name="coin" gid="3" x="879.954" y="128.229" width="16" height="16"/>
  <object id="15" name="coin" gid="3" x="1024.19" y="79.7859" width="16" height="16"/>
  <object id="16" name="coin" gid="3" x="1185.17" y="224.446" width="16" height="16"/>
  <object id="17" name="coin" gid="3" x="1408.14" y="112.416" width="16" height="16"/>
  <object id="18" name="coin" gid="3" x="1512.01" y="240.217" width="16" height="16"/>
  <object id="19" name="coin" gid="3" x="1401.07" y="327.774" width="16" height="16"/>
  <object id="20" name="coin" gid="3" x="1278.71" y="393.034" width="16" height="16"/>
  <object id="21" name="coin" gid="3" x="1002.44" y="445.786" width="16" height="16"/>
  <object id="22" name="coin" gid="3" x="948.058" y="444.154" width="16" height="16"/>
  <object id="23" name="coin" gid="3" x="895.85" y="521.922" width="16" height="16"/>
  <object id="24" name="coin" gid="3" x="1036.16" y="329.949" width="16" height="16"/>
  <object id="25" name="coin" gid="3" x="1744.77" y="240.217" width="16" height="16"/>
  <object id="26" name="coin" gid="3" x="1599.57" y="388.683" width="16" height="16"/>
  <object id="27" name="coin" gid="3" x="1773.05" y="426.208" width="16" height="16"/>
  <object id="28" name="coin" gid="3" x="1695.28" y="555.64" width="16" height="16"/>
  <object id="29" name="coin" gid="3" x="2031.37" y="412.068" width="16" height="16"/>
  <object id="30" name="coin" gid="3" x="2049.32" y="295.688" width="16" height="16"/>
  <object id="31" name="coin" gid="3" x="2041.71" y="188.553" width="16" height="16"/>
  <object id="32" name="coin" gid="3" x="2255.98" y="335.931" width="16" height="16"/>
  <object id="33" name="coin" gid="3" x="2176.58" y="390.858" width="16" height="16"/>
  <object id="34" name="coin" gid="3" x="2117.84" y="529.536" width="16" height="16"/>
  <object id="35" name="coin" gid="3" x="2367.46" y="524.097" width="16" height="16"/>
  <object id="36" name="coin" gid="3" x="2385.41" y="216.288" width="16" height="16"/>
  <object id="37" name="coin" gid="3" x="2500.7" y="332.124" width="16" height="16"/>
  <object id="39" name="coin" gid="3" x="2477.86" y="331.581" width="16" height="16"/>
  <object id="40" name="coin" gid="3" x="2650.8" y="317.985" width="16" height="16"/>
  <object id="41" name="coin" gid="3" x="2726.39" y="316.897" width="16" height="16"/>
  <object id="42" name="coin" gid="3" x="2688.32" y="439.803" width="16" height="16"/>
  <object id="43" name="coin" gid="3" x="2688.32" y="463.188" width="16" height="16"/>
  <object id="45" name="coin" gid="3" x="2688.32" y="487.117" width="16" height="16"/>
  <object id="46" name="coin" gid="3" x="2688.87" y="511.045" width="16" height="16"/>
  <object id="47" name="coin" gid="3" x="2689.41" y="558.903" width="16" height="16"/>
  <object id="48" name="coin" gid="3" x="2665.48" y="534.43" width="16" height="16"/>
  <object id="50" name="coin" gid="3" x="2713.34" y="534.974" width="16" height="16"/>
  <object id="51" name="coin" gid="3" x="2623.61" y="238.585" width="16" height="16"/>
  <object id="53" name="coin" gid="3" x="2767.72" y="127.643" width="16" height="16"/>
  <object id="54" name="coin" gid="3" x="2585.7" y="409.69" width="16" height="16"/>
  <object id="55" name="coin" gid="1" x="49.8692" y="273.578" width="16" height="16"/>
 </objectgroup>
</map>
